layout/main/dist/assets/main/img/contacts/phone.svg

<svg width="36" height="36" viewBox="0 0 36 36" fill="none" xmlns="http://www.w3.org/2000/svg">
<path d="M18 36C27.9411 36 36 27.9411 36 18C36 8.05887 27.9411 0 18 0C8.05887 0 0 8.05887 0 18C0 27.9411 8.05887 36 18 36Z" fill="#46B51D"/>
<path d="M24.5807 21.1368C24.0047 20.746 23.248 20.7479 22.6741 21.1418L21.8478 21.709C20.9274 22.3407 19.7034 22.3063 18.8187 21.6255C17.9849 20.9838 17.1891 20.2957 16.4334 19.5665C15.7042 18.8108 15.0162 18.0151 14.3744 17.1813C13.6935 16.2967 13.6593 15.0727 14.291 14.1522L14.8581 13.3259C15.2519 12.752 15.254 11.9953 14.8631 11.4193L12.4978 7.93355C11.8444 6.97069 10.5726 6.6481 9.54088 7.18634L9.54025 7.18662C7.45626 8.27394 6.58192 10.7882 7.53677 12.9361C8.91117 16.0281 10.7566 18.8562 12.9837 21.333L14.6669 23.0162C17.1438 25.2433 19.972 27.0888 23.0639 28.4632C25.2119 29.418 27.726 28.5437 28.8133 26.4597L28.8136 26.4591C29.3519 25.4274 29.0293 24.1556 28.0664 23.5021L24.5807 21.1368Z" fill="white"/>
</svg>

<svg width="36" height="36" viewBox="0 0 36 36" fill="none" xmlns="http://www.w3.org/2000/svg"><path d="M18 36c9.941 0 18-8.059 18-18S27.941 0 18 0 0 8.059 0 18s8.059 18 18 18z" fill="#46B51D"/><path d="M24.58 21.137a1.691 1.691 0 00-1.906.005l-.826.567a2.577 2.577 0 01-3.03-.084 28.245 28.245 0 01-2.385-2.058 28.262 28.262 0 01-2.059-2.386 2.577 2.577 0 01-.083-3.029l.567-.826c.394-.574.396-1.33.005-1.907l-2.365-3.485a2.293 2.293 0 00-2.957-.748 4.443 4.443 0 00-2.004 5.75 31.993 31.993 0 005.447 8.397l1.683 1.683a31.998 31.998 0 008.397 5.447 4.443 4.443 0 005.75-2.003 2.293 2.293 0 00-.748-2.958l-3.485-2.365z" fill="#fff"/></svg>
